public/avatar/hat/289.svg

<svg xmlns:xlink="http://www.w3.org/1999/xlink" height="92.9" width="100.7" xmlns="http://www.w3.org/2000/svg"><g transform="translate(38.65 49.75)"><use height="30.25" transform="translate(-23.55 -10.95)" width="47.15" xlink:href="#a"/><use height="29.35" transform="translate(-22.5 -10.2)" width="45.2" xlink:href="#b"/><use height="25.9" transform="translate(-21 -7.65)" width="41.4" xlink:href="#c"/><use height="22.35" transform="translate(-17.9 -3.2)" width="33.7" xlink:href="#d"/><use height="15.2" transform="translate(-18 -5.5)" width="35.65" xlink:href="#e"/><use height="21.5" transform="translate(-20.6 -8)" width="42.6" xlink:href="#f"/><use height="9.45" transform="translate(-13.35 1)" width="9.5" xlink:href="#g"/><use height="8" transform="translate(-12.7 1.65)" width="8.3" xlink:href="#h"/><use height="6.1" transform="translate(-11.8 3.55)" width="7.4" xlink:href="#i"/><use height="1.1" transform="translate(-11.9 3.15)" width="2.35" xlink:href="#j"/></g><defs><use height="30.25" width="47.15" xlink:href="#k" id="a"/><use height="29.35" width="45.2" xlink:href="#l" id="b"/><use height="25.9" width="41.4" xlink:href="#m" id="c"/><use height="22.35" width="33.7" xlink:href="#n" id="d"/><use height="15.2" width="35.65" xlink:href="#o" id="e"/><use height="21.5" width="42.6" xlink:href="#p" id="f"/><use height="9.45" width="9.5" xlink:href="#q" id="g"/><use height="8" width="8.3" xlink:href="#r" id="h"/><use height="6.1" width="7.4" xlink:href="#s" id="i"/><use height="1.1" width="2.35" xlink:href="#t" id="j"/><path d="M1.25 19.35v.1l.05-.1h-.05M20.75 7.5l-.05-.15.05.2V7.5m20-7.35q1.15.3 1.25 1.3l-.1.35-.3.2q-2.6.4-3.75 1.3l-.05.05q1.75.05 3.65.85 5.35 2.4 5.75 7.7l-.1.35-.25.2-.35-.05-.25-.25q-.6-1.35-2.25-1.95h-.05q.9 1.2 1.85 3.35 2.3 4.4-.15 9.8l-.25.25-.35.05-.3-.25v-.35q.15-.8-.05-1.05-.55 2.3-3.65 5.65H41l-2.5 2.25-.55.15-.55-.45q-.15-.25.1-.95l.05-.15.05-.15.2-1.15.15-1.55-3.3-6.6q-3.5-2.8-4.7-3.35Q26 13.8 19.1 13.8q-2.1 0-5.05 2.4-3.55 2.85-3.55 6.25l.1 3.95-.3 2.25q.85.05.55 1.3l-.2.3-.35.1q-6.65-.95-7.7-6.9-.3-1.85-.05-3.95l.05-.25-.45.65-.75 1.2-.3.2-.4-.05-.2-.3Q-.55 17.7 2.4 14.1h.05l.25-.3q-.95.4-1.4.85l-.35.55-.3.2-.35-.05-.25-.25v-.35Q3.2 6.1 5.9 5.55q2.9-2.35 5.9-1.9l.1.05-1.2-1-.2-.35.1-.35q.1-.15.35-.2Q19 .75 21.65 7.15l.05.2.05.15v-.15l3.9-.2q1.5-1.7 4.3-3.35 3-2.55 8.25-3.7h.05l2.5.05" fill="#51003d" fill-rule="evenodd" transform="translate(-.05 -.1)" id="k"/><path d="M33.25 27.05v.1l.15-.05-.1-.05h-.05M11.8 18.6v.05h.05l-.05-.05m.55-14.9h.15v-.05l-.15.05m32.5 5.35q-2.4-.85-3-.65 5.15 6.75 2.4 12.4l-1.05-.25H43q-1.5 5.15-5.65 7.65L37 25.55l-.05.05-.55.85q-.95 1.1-2.85 1.8l-1.7.45q1-3.65 0-8.5l-1.35 1q-.05 2-1.05 2.3l-1.8-2.35-3.05-2.85q-2.75-1.55-4.75-2.25l-1.45-.4q-2.65.75-4.2 2.2l-1 1.25q-.6.9-.8 2.4l-.05 1.35q-.85 3.3.9 6.25-2.35.65-3.7-.5l-.45-.7-.35-.4.45.8-.65-.05-.05.15Q3.15 27.3 2.3 22q-.3-1.65-.05-3.55l.25-1.55L0 18.55q.2-2.3 2.15-4.8.85-1.1 1.65-1.85l-.5-.1-1.5.15-1.05.45.1-.35h-.2l.6-1.65Q3.05 6.1 7 4.5l-.5-.1.75-.5 2.9-.6 2.25.2-1-1.7q4.8-.1 7.1 2.9l1.1 2h.1l.5-.1h.2l.3.1 2.3.15 1.55-.2h.15l.45.1 4.1-3.6Q34.95-.75 39.9.2q-3 .6-4.3 2.75 7.25.25 9.25 6.1" fill="#c09" fill-rule="evenodd" id="l"/><path d="M37.75 3.5q3.5 2-.1.15Q35 3.4 34.1 4.9q7.25 2.25 7.3 7.2l-1.2-.65q-1.35-.5-1.8.55 3.2 2 1.45 5.6-1.1-1.95-2.1-2.55 2.35 3.75.15 6.6.35-1.8-.7-2.2.35 2.65-.6 2.9-.1-1.45-.5-1.6 1-1.85.55-4.6-.5-3.25-3.05-7.75-1.2-1.2-2.6-2.05l.1.15.55 1.95v.35l-.05.05-.2.2-.3.05-.3-.15-2.15-2.3-2.8-.3h-.1l-2.4-.85-.15-.1-.1-.15-.1-.3.2-.3q.1-.15.3-.15l2.25-.1 1.4-1.85q2-2 4.95-2.55l-1 .65q-.95.8-.85 1.85l2.45-.25q2.85 0 5.05 1.25m-11.2 7.2-.8-.85 4 3.85q.95 1.1.95 1.5v.05l.05.15v.05l-.15.25q-.9 1.4-1.6 1.7v-1.25Q28.95 15 28.55 14q-.45-1.3-1.35-2.5l-.65-.8m-16.8 9.55-.1 3.2.7 2.3q-.4.35-1.75-.25-.85-3.45.05-6.7l1.2-2.7h.45l.2.25-.75 3.9m-5.6-.65.3-.05.8-.2.65-.3.15-.1-.1 1.85.05.7q.05 1.5.75 2.7l.5.75.45.8-.65-.05q-1.55-.35-2.2-2.4l-.35-2.45-2.1-.1.85-1.1.9-.05m-.7-.4-.1.15v-.2l.1.05m12.7-14.8-.15.7-1.2.5-.3.15-1.3.65-.6.35-.25.1q-2.05.6-3.95 2.65l-1.65 2.25-.15 1.2-.15.45-1.1 2.7-1.15 2-2.2-.25q1.35-.9 2.85-4.3l-.1-.05-1.2-.05-.45.4.05-.7q-2-.1-3.15.95l1.8-2.15Q3.85 9.8 5.6 9.4q-.15-.6-.75-.9l-.6-.15Q5.5 5.65 8.6 5.1 7.9 4.3 6.65 4L5.5 3.85q3.6-3 7.75-1.2.6-1.4-.1-1.75 2.75.5 3 3.5" fill="#b30086" fill-rule="evenodd" id="m"/><path d="m30.55 6.2-.25-.45q-.45-1.8-2.15-3.1l-.15-.6-.1-.15q1.4.85 2.6 2.05 2.55 4.5 3.05 7.75.45 2.75-.55 4.6l-.1.15-.75 1.55.25-.2-.05.8-.55.85q-.95 1.1-2.85 1.8l-1.7.45q1-3.65 0-8.5l-1.35 1q-.05 2-1.05 2.3l-1.8-2.35L20 11.3q-2.75-1.55-4.75-2.25l-1.45-.4q-2.65.75-4.2 2.2l-1 1.25q-.6.9-.8 2.4l-.05 1.35q-.85 3.3.9 6.25-2.35.65-3.7-.5l-.45-.7-.35-.4-.5-.75q-.7-1.2-.75-2.7l-.05-.7.1-1.85-.15.1-.65.3-.8.2-.3.05-.9.05H0l.25-.3.1-.15.75-1.1 1.15-2 1.1-2.7.15-.45.15-1.2L5.3 5.05Q7.2 3 9.25 2.4l.25-.1.6-.35 1.3-.65.3-.15 1.2-.5L14.95 0l-5.9 2.75-.55.3L6.75 4.4l-.9.85q-1.1 1-1.5 1.75L3.1 10.55q-1.25 3.05-2 3.7.65.5 1.85-.75v-.15l.15-.1v.15l1.8-2.55q-.3 2.4-1.75 3.5l.1 1.8.4 1.9q.6 1.9 1.55 2.85l.3.15q1.35.6 1.75.25l-.7-2.3.1-3.2.75-3.9q.25.25.4 0l.2-.3q2.3-3.75 6.55-3.35l1.95.35 1.85.7L21.1 11l.95.75.05.05q1.65 1.2 2.55 2.7.6-.65.4-3.45l-.75-2.7-1.05-1.85-1.35-1.45 1.55 1.2.65.8.95 1.75.65 2.45.05.35.15 1.35q.7-.3 1.6-1.7l.15-.25v-.05q1.6 2.7 1 9.1v.1l.15-.05q1-.45 3.05-1.9l.05-.5.7-1.35.05-.2.35-1.25v-.2l.1-1.5-.35-2.1q-.6-2.3-2.2-4.9" fill="#710055" fill-rule="evenodd" id="n"/><path d="m31 4.75.15.05q3.4.25 4.5 2.45-1.8-1.3-3 .75l1.3.85q1.3 1.1 1.4 2.4l-1.2-.05-.05.1.4 1q.45 1.5.15 2.9l-.55-.85-.45-.35q-.5-3.25-3.05-7.75-1.2-1.2-2.6-2.05l-.05-.05-1.1-1.05-.2-.1-2.6-.65.4-.85Q25.25.2 26.1 0l-.4.4q-.3.55.05 1.3l1.15-.4 2.35-.1-.5.15q-.6.25-.9.9l1.45.25q1.75.55 3.05 2-.7-.65-1.35.25m-20.15-2q.55-.5.55-1.15l.2.15q.65.5-.1 1.75v.1l-1.3.65-.4.25h-.2l-.25.2Q7.3 5.3 5.4 7.35L3.75 9.6l-.15 1.2-.15.45q-.35 1.25-1.1 2.7l-1.2.25q.65-.55 1.75-2.8l-.15.05.55-1.4q-1.45-1.4-3.3.15l1.7-1.7 1.65-1.25q1-1 1.8-.9l1.2-1.5-1.45-.2-1 .3q1.25-1.7 4.85-1.85-.15.85.15 0 .35-.85-.4-1.4 1.65-.1 2.35 1.05" fill="#91006c" fill-rule="evenodd" id="o"/><path d="M.1 2.85Q-.6.9 3.5 1.25L4.75.15Q5.9-.6 7 2l2 .65q1.5.9-1.35 3.2 1.4 5.95-3.05 2-1.3.8-2.3.85-2.05.05-1-3.8L.1 2.85" fill="#634025" fill-rule="evenodd" id="q"/><path d="M4.05.15Q5-.5 5.8 1.9q4.8 0 .3 3.1 1.6 5-2.15 1.7-4.45 2.7-2.5-2.5Q.4 3.25.1 2.45-.5.75 3.2 1.3L4.05.15" fill="#ffe2b7" fill-rule="evenodd" id="r"/><path d="M5.2 3.1q1.6 5-2.15 1.7-3.7 2.25-2.9-1.35Q3.3 4 4.9 0q4.8 0 .3 3.1" fill="#fc9" fill-rule="evenodd" id="s"/><path d="m4.2 3.6 1.25-.35-.95 1.2Q2.85 4.85 2.05 6L1.6 7.1v.15L0 8.7q1.5-4.5 4.2-5.1m15.25 1.85-6.6 2.4q2.75-2.4 6.6-2.4m14.15 9 1.25 3.4Q35 20 34.1 21.5l-.5-7.05m7.9-3.7 1.1 2.45q0 3.55-.85 4.05l.2-3.5-.1-.25-.35-2.75M11.1 0l.6.2q.45.2-.4.65L10.9.7q-.25-.8.2-.7m1.1 8.9q-.5 0 0-.75.5.75 0 .75m21.15 4.75q-.5 0 0-.75.5.75 0 .75m-8.8-2.6q2.55 1.75 2.5 6.65-1.1-4.1-2.5-6.65" id="p" fill="#ff71dc" fill-rule="evenodd"/><g id="t" fill="#fff" fill-rule="evenodd"><path d="m1 0 .05.05.3.25.05.05q.3.45-.2.75L.3.95Q-.2.65.2.25.4.05.8 0H1"/><path d="M2.1.9q-.5 0 0-.8.55.8 0 .8"/></g></defs></svg>

<?xml version="1.0" encoding="UTF-8" standalone="no"?>
<svg xmlns:xlink="http://www.w3.org/1999/xlink" height="92.9px" width="100.7px" xmlns="http://www.w3.org/2000/svg">
  <g transform="matrix(1.0, 0.0, 0.0, 1.0, 38.65, 49.75)">
    <use height="30.25" transform="matrix(1.0, 0.0, 0.0, 1.0, -23.55, -10.95)" width="47.15" xlink:href="#sprite0"/>
    <use height="29.35" transform="matrix(1.0, 0.0, 0.0, 1.0, -22.5, -10.2)" width="45.2" xlink:href="#sprite1"/>
    <use height="25.9" transform="matrix(1.0, 0.0, 0.0, 1.0, -21.0, -7.65)" width="41.4" xlink:href="#sprite2"/>
    <use height="22.35" transform="matrix(1.0, 0.0, 0.0, 1.0, -17.9, -3.2)" width="33.7" xlink:href="#sprite3"/>
    <use height="15.2" transform="matrix(1.0, 0.0, 0.0, 1.0, -18.0, -5.5)" width="35.65" xlink:href="#sprite4"/>
    <use height="21.5" transform="matrix(1.0, 0.0, 0.0, 1.0, -20.6, -8.0)" width="42.6" xlink:href="#sprite5"/>
    <use height="9.45" transform="matrix(1.0, 0.0, 0.0, 1.0, -13.35, 1.0)" width="9.5" xlink:href="#sprite6"/>
    <use height="8.0" transform="matrix(1.0, 0.0, 0.0, 1.0, -12.7, 1.65)" width="8.3" xlink:href="#sprite7"/>
    <use height="6.1" transform="matrix(1.0, 0.0, 0.0, 1.0, -11.8, 3.55)" width="7.4" xlink:href="#sprite8"/>
    <use height="1.1" transform="matrix(1.0, 0.0, 0.0, 1.0, -11.9, 3.15)" width="2.35" xlink:href="#sprite9"/>
  </g>
  <defs>
    <g id="sprite0" transform="matrix(1.0, 0.0, 0.0, 1.0, -0.05, -0.1)">
      <use height="30.25" transform="matrix(1.0, 0.0, 0.0, 1.0, 0.05, 0.1)" width="47.15" xlink:href="#shape0"/>
    </g>
    <g id="shape0" transform="matrix(1.0, 0.0, 0.0, 1.0, -0.05, -0.1)">
      <path d="M1.25 19.35 L1.25 19.45 1.3 19.35 1.25 19.35 M20.75 7.5 L20.7 7.35 20.75 7.55 20.75 7.5 M40.75 0.15 Q41.9 0.45 42.0 1.45 L41.9 1.8 41.6 2.0 Q39.0 2.4 37.85 3.3 L37.8 3.35 Q39.55 3.4 41.45 4.2 46.8 6.6 47.2 11.9 L47.1 12.25 46.85 12.45 46.5 12.4 46.25 12.15 Q45.65 10.8 44.0 10.2 L43.95 10.2 Q44.85 11.4 45.8 13.55 48.1 17.95 45.65 23.35 L45.4 23.6 45.05 23.65 44.75 23.4 44.75 23.05 Q44.9 22.25 44.7 22.0 44.15 24.3 41.05 27.65 L41.0 27.65 38.5 29.9 37.95 30.05 37.4 29.6 Q37.25 29.35 37.5 28.65 L37.55 28.5 37.6 28.35 37.8 27.2 37.95 25.65 34.65 19.05 Q31.15 16.25 29.95 15.7 26.0 13.8 19.1 13.8 17.0 13.8 14.05 16.2 10.5 19.05 10.5 22.45 L10.6 26.4 10.3 28.65 Q11.15 28.7 10.85 29.95 L10.65 30.25 10.3 30.35 Q3.65 29.4 2.6 23.45 2.3 21.6 2.55 19.5 L2.6 19.25 2.15 19.9 1.4 21.1 1.1 21.3 0.7 21.25 0.5 20.95 Q-0.55 17.7 2.4 14.1 L2.45 14.1 2.7 13.8 Q1.75 14.2 1.3 14.65 L0.95 15.2 0.65 15.4 0.3 15.35 0.05 15.1 0.05 14.75 Q3.2 6.1 5.9 5.55 8.8 3.2 11.8 3.65 L11.9 3.7 10.7 2.7 10.5 2.35 10.6 2.0 Q10.7 1.85 10.95 1.8 19.0 0.75 21.65 7.15 L21.7 7.35 21.75 7.5 21.75 7.35 25.65 7.15 Q27.15 5.45 29.95 3.8 32.95 1.25 38.2 0.1 L38.25 0.1 40.75 0.15" fill="#51003d" fill-rule="evenodd" stroke="none"/>
    </g>
    <g id="sprite1" transform="matrix(1.0, 0.0, 0.0, 1.0, 0.0, 0.0)">
      <use height="29.35" transform="matrix(1.0, 0.0, 0.0, 1.0, 0.0, 0.0)" width="45.2" xlink:href="#shape1"/>
    </g>
    <g id="shape1" transform="matrix(1.0, 0.0, 0.0, 1.0, 0.0, 0.0)">
      <path d="M33.25 27.05 L33.25 27.15 33.4 27.1 33.3 27.05 33.25 27.05 M11.8 18.6 L11.8 18.65 11.85 18.65 11.8 18.6 M12.35 3.7 L12.5 3.7 12.5 3.65 12.35 3.7 M44.85 9.05 Q42.45 8.2 41.85 8.4 47.0 15.15 44.25 20.8 L43.2 20.55 43.0 20.55 Q41.5 25.7 37.35 28.2 L37.0 25.55 36.95 25.6 36.4 26.45 Q35.45 27.55 33.55 28.25 L31.85 28.7 Q32.85 25.05 31.85 20.2 L30.5 21.2 Q30.45 23.2 29.45 23.5 L27.65 21.15 24.6 18.3 Q21.85 16.75 19.85 16.05 L18.4 15.65 Q15.75 16.4 14.2 17.85 L13.2 19.1 Q12.6 20.0 12.4 21.5 L12.35 22.85 Q11.5 26.15 13.25 29.1 10.9 29.75 9.55 28.6 L9.1 27.9 8.75 27.5 9.2 28.3 8.55 28.25 8.5 28.4 Q3.15 27.3 2.3 22.0 2.0 20.35 2.25 18.45 L2.5 16.9 0.0 18.55 Q0.2 16.25 2.15 13.75 3.0 12.65 3.8 11.9 L3.3 11.8 1.8 11.95 0.75 12.4 0.85 12.05 0.65 12.05 1.25 10.4 Q3.05 6.1 7.0 4.5 L6.5 4.4 7.25 3.9 10.15 3.3 12.4 3.5 11.4 1.8 Q16.2 1.7 18.5 4.7 L19.6 6.7 19.7 6.7 20.2 6.6 20.3 6.6 20.4 6.6 20.7 6.7 23.0 6.85 24.55 6.65 24.6 6.65 24.7 6.65 25.15 6.75 29.25 3.15 Q34.95 -0.75 39.9 0.2 36.9 0.8 35.6 2.95 42.85 3.2 44.85 9.05" fill="#cc0099" fill-rule="evenodd" stroke="none"/>
    </g>
    <g id="sprite2" transform="matrix(1.0, 0.0, 0.0, 1.0, 0.0, 0.0)">
      <use height="25.9" transform="matrix(1.0, 0.0, 0.0, 1.0, 0.0, 0.0)" width="41.4" xlink:href="#shape2"/>
    </g>
    <g id="shape2" transform="matrix(1.0, 0.0, 0.0, 1.0, 0.0, 0.0)">
      <path d="M37.75 3.5 Q41.25 5.5 37.65 3.65 35.0 3.4 34.1 4.9 41.35 7.15 41.4 12.1 L40.2 11.45 Q38.85 10.95 38.4 12.0 41.6 14.0 39.85 17.6 38.75 15.65 37.75 15.05 40.1 18.8 37.9 21.65 38.25 19.85 37.2 19.45 37.55 22.1 36.6 22.35 36.5 20.9 36.1 20.75 37.1 18.9 36.65 16.15 36.15 12.9 33.6 8.4 32.4 7.2 31.0 6.35 L31.1 6.5 31.65 8.45 31.65 8.8 31.6 8.85 31.4 9.05 31.1 9.1 30.8 8.95 28.65 6.65 25.85 6.35 25.75 6.35 23.35 5.5 23.2 5.4 23.1 5.25 23.0 4.95 23.2 4.65 Q23.3 4.5 23.5 4.5 L25.75 4.4 27.15 2.55 Q29.15 0.55 32.1 0.0 L31.1 0.65 Q30.15 1.45 30.25 2.5 L32.7 2.25 Q35.55 2.25 37.75 3.5 M26.55 10.7 L25.75 9.85 29.75 13.7 Q30.7 14.8 30.7 15.2 L30.7 15.25 30.75 15.4 30.75 15.45 30.6 15.7 Q29.7 17.1 29.0 17.4 L29.0 16.15 Q28.95 15.0 28.55 14.0 28.1 12.7 27.2 11.5 L26.55 10.7 M9.75 20.25 L9.65 23.45 10.35 25.75 Q9.95 26.1 8.6 25.5 7.75 22.05 8.65 18.8 L9.85 16.1 10.3 16.1 10.5 16.35 9.75 20.25 M4.15 19.6 L4.45 19.55 5.25 19.35 5.9 19.05 6.05 18.95 5.95 20.8 6.0 21.5 Q6.05 23.0 6.75 24.2 L7.25 24.95 7.7 25.75 7.05 25.7 Q5.5 25.35 4.85 23.3 L4.5 20.85 2.4 20.75 3.25 19.65 4.15 19.6 M3.45 19.2 L3.35 19.35 3.35 19.15 3.45 19.2 M16.15 4.4 L16.0 5.1 14.8 5.6 14.5 5.75 13.2 6.4 12.6 6.75 12.35 6.85 Q10.3 7.45 8.4 9.5 L6.75 11.75 6.6 12.95 6.45 13.4 5.35 16.1 4.2 18.1 2.0 17.85 Q3.35 16.95 4.85 13.55 L4.75 13.5 3.55 13.45 3.1 13.85 3.15 13.15 Q1.15 13.05 0.0 14.1 L1.8 11.95 Q3.85 9.8 5.6 9.4 5.45 8.8 4.85 8.5 L4.25 8.35 Q5.5 5.65 8.6 5.1 7.9 4.3 6.65 4.0 L5.5 3.85 Q9.1 0.85 13.25 2.65 13.85 1.25 13.15 0.9 15.9 1.4 16.15 4.4" fill="#b30086" fill-rule="evenodd" stroke="none"/>
    </g>
    <g id="sprite3" transform="matrix(1.0, 0.0, 0.0, 1.0, 0.0, 0.0)">
      <use height="22.35" transform="matrix(1.0, 0.0, 0.0, 1.0, 0.0, 0.0)" width="33.7" xlink:href="#shape3"/>
    </g>
    <g id="shape3" transform="matrix(1.0, 0.0, 0.0, 1.0, 0.0, 0.0)">
      <path d="M30.55 6.2 L30.3 5.75 Q29.85 3.95 28.15 2.65 L28.0 2.05 27.9 1.9 Q29.3 2.75 30.5 3.95 33.05 8.45 33.55 11.7 34.0 14.45 33.0 16.3 L32.9 16.45 32.15 18.0 32.4 17.8 32.35 18.6 31.8 19.45 Q30.85 20.55 28.95 21.25 L27.25 21.7 Q28.25 18.05 27.25 13.2 L25.9 14.2 Q25.85 16.2 24.85 16.5 L23.05 14.15 20.0 11.3 Q17.25 9.75 15.25 9.05 L13.8 8.65 Q11.15 9.4 9.6 10.85 L8.6 12.1 Q8.0 13.0 7.8 14.5 L7.75 15.85 Q6.9 19.15 8.65 22.1 6.3 22.75 4.95 21.6 L4.5 20.9 4.15 20.5 3.65 19.75 Q2.95 18.55 2.9 17.05 L2.85 16.35 2.95 14.5 2.8 14.6 2.15 14.9 1.35 15.1 1.05 15.15 0.15 15.2 0.0 15.2 0.25 14.9 0.35 14.75 1.1 13.65 2.25 11.65 3.35 8.95 3.5 8.5 3.65 7.3 5.3 5.05 Q7.2 3.0 9.25 2.4 L9.5 2.3 10.1 1.95 11.4 1.3 11.7 1.15 12.9 0.65 14.95 0.0 9.05 2.75 8.5 3.05 6.75 4.4 5.85 5.25 Q4.75 6.25 4.35 7.0 L3.1 10.55 Q1.85 13.6 1.1 14.25 1.75 14.75 2.95 13.5 L2.95 13.35 3.1 13.25 3.1 13.4 4.9 10.85 Q4.6 13.25 3.15 14.35 L3.25 16.15 3.65 18.05 Q4.25 19.95 5.2 20.9 L5.5 21.05 Q6.85 21.65 7.25 21.3 L6.55 19.0 6.65 15.8 7.4 11.9 Q7.65 12.15 7.8 11.9 L8.0 11.6 Q10.3 7.85 14.55 8.25 L16.5 8.6 18.35 9.3 21.1 11.0 22.05 11.75 22.1 11.8 Q23.75 13.0 24.65 14.5 25.25 13.85 25.05 11.05 L24.3 8.35 23.25 6.5 21.9 5.05 23.45 6.25 24.1 7.05 25.05 8.8 25.7 11.25 25.75 11.6 25.9 12.95 Q26.6 12.65 27.5 11.25 L27.65 11.0 27.65 10.95 Q29.25 13.65 28.65 20.05 L28.65 20.15 28.8 20.1 Q29.8 19.65 31.85 18.2 L31.9 17.7 32.6 16.35 32.65 16.15 33.0 14.9 33.0 14.7 33.1 13.2 32.75 11.1 Q32.15 8.8 30.55 6.2" fill="#710055" fill-rule="evenodd" stroke="none"/>
    </g>
    <g id="sprite4" transform="matrix(1.0, 0.0, 0.0, 1.0, 0.0, 0.0)">
      <use height="15.2" transform="matrix(1.0, 0.0, 0.0, 1.0, 0.0, 0.0)" width="35.65" xlink:href="#shape4"/>
    </g>
    <g id="shape4" transform="matrix(1.0, 0.0, 0.0, 1.0, 0.0, 0.0)">
      <path d="M31.0 4.75 L31.15 4.8 Q34.55 5.05 35.65 7.25 33.85 5.95 32.65 8.0 L33.95 8.85 Q35.25 9.95 35.35 11.25 L34.15 11.2 34.1 11.3 34.5 12.3 Q34.95 13.8 34.65 15.2 L34.1 14.35 33.65 14.0 Q33.15 10.75 30.6 6.25 29.4 5.05 28.0 4.2 L27.95 4.15 26.85 3.1 26.65 3.0 24.05 2.35 24.45 1.5 Q25.25 0.2 26.1 0.0 L25.7 0.4 Q25.4 0.95 25.75 1.7 L26.9 1.3 29.25 1.2 28.75 1.35 Q28.15 1.6 27.85 2.25 L29.3 2.5 Q31.05 3.05 32.35 4.5 31.65 3.85 31.0 4.75 M10.85 2.75 Q11.4 2.25 11.4 1.6 L11.6 1.75 Q12.25 2.25 11.5 3.5 L11.5 3.55 11.5 3.6 10.2 4.25 9.8 4.5 9.6 4.5 9.35 4.7 Q7.3 5.3 5.4 7.35 L3.75 9.6 3.6 10.8 3.45 11.25 Q3.1 12.5 2.35 13.95 L1.15 14.2 Q1.8 13.65 2.9 11.4 L2.75 11.45 3.3 10.05 Q1.85 8.65 0.0 10.2 L1.7 8.5 3.35 7.25 Q4.35 6.25 5.15 6.35 L6.35 4.85 4.9 4.65 3.9 4.95 Q5.15 3.25 8.75 3.1 8.6 3.95 8.9 3.1 9.25 2.25 8.5 1.7 10.15 1.6 10.85 2.75" fill="#91006c" fill-rule="evenodd" stroke="none"/>
    </g>
    <g id="sprite5" transform="matrix(1.0, 0.0, 0.0, 1.0, 0.0, 0.0)">
      <use height="21.5" transform="matrix(1.0, 0.0, 0.0, 1.0, 0.0, 0.0)" width="42.6" xlink:href="#shape5"/>
    </g>
    <g id="shape5" transform="matrix(1.0, 0.0, 0.0, 1.0, 0.0, 0.0)">
      <path d="M4.2 3.6 L5.45 3.25 4.5 4.45 Q2.85 4.85 2.05 6.0 L1.6 7.1 1.6 7.25 0.0 8.7 Q1.5 4.2 4.2 3.6" fill="#ff71dc" fill-rule="evenodd" stroke="none"/>
      <path d="M19.45 5.45 L12.85 7.85 Q15.6 5.45 19.45 5.45" fill="#ff71dc" fill-rule="evenodd" stroke="none"/>
      <path d="M33.6 14.45 L34.85 17.85 Q35.0 20.0 34.1 21.5 L33.6 14.45" fill="#ff71dc" fill-rule="evenodd" stroke="none"/>
      <path d="M41.5 10.75 L42.6 13.2 Q42.6 16.75 41.75 17.25 L41.95 13.75 41.85 13.5 41.5 10.75" fill="#ff71dc" fill-rule="evenodd" stroke="none"/>
      <path d="M11.1 0.0 L11.7 0.2 Q12.15 0.4 11.3 0.85 L10.9 0.7 Q10.65 -0.1 11.1 0.0" fill="#ff71dc" fill-rule="evenodd" stroke="none"/>
      <path d="M12.2 8.9 Q11.7 8.9 12.2 8.15 12.7 8.9 12.2 8.9" fill="#ff71dc" fill-rule="evenodd" stroke="none"/>
      <path d="M33.35 13.65 Q32.85 13.65 33.35 12.9 33.85 13.65 33.35 13.65" fill="#ff71dc" fill-rule="evenodd" stroke="none"/>
      <path d="M24.55 11.05 Q27.1 12.8 27.05 17.7 25.95 13.6 24.55 11.05" fill="#ff71dc" fill-rule="evenodd" stroke="none"/>
    </g>
    <g id="sprite6" transform="matrix(1.0, 0.0, 0.0, 1.0, 0.0, 0.0)">
      <use height="9.45" transform="matrix(1.0, 0.0, 0.0, 1.0, 0.0, 0.0)" width="9.5" xlink:href="#shape6"/>
    </g>
    <g id="shape6" transform="matrix(1.0, 0.0, 0.0, 1.0, 0.0, 0.0)">
      <path d="M0.1 2.85 Q-0.6 0.9 3.5 1.25 L4.75 0.15 Q5.9 -0.6 7.0 2.0 L9.0 2.65 Q10.5 3.55 7.65 5.85 9.05 11.8 4.6 7.85 3.3 8.65 2.3 8.7 0.25 8.75 1.3 4.9 L0.1 2.85" fill="#634025" fill-rule="evenodd" stroke="none"/>
    </g>
    <g id="sprite7" transform="matrix(1.0, 0.0, 0.0, 1.0, 0.0, 0.0)">
      <use height="8.0" transform="matrix(1.0, 0.0, 0.0, 1.0, 0.0, 0.0)" width="8.3" xlink:href="#shape7"/>
    </g>
    <g id="shape7" transform="matrix(1.0, 0.0, 0.0, 1.0, 0.0, 0.0)">
      <path d="M4.05 0.15 Q5.0 -0.5 5.8 1.9 10.6 1.9 6.1 5.0 7.7 10.0 3.95 6.7 -0.5 9.4 1.45 4.2 0.4 3.25 0.1 2.45 -0.5 0.75 3.2 1.3 L4.05 0.15" fill="#ffe2b7" fill-rule="evenodd" stroke="none"/>
    </g>
    <g id="sprite8" transform="matrix(1.0, 0.0, 0.0, 1.0, 0.0, 0.0)">
      <use height="6.1" transform="matrix(1.0, 0.0, 0.0, 1.0, 0.0, 0.0)" width="7.4" xlink:href="#shape8"/>
    </g>
    <g id="shape8" transform="matrix(1.0, 0.0, 0.0, 1.0, 0.0, 0.0)">
      <path d="M5.2 3.1 Q6.8 8.1 3.05 4.8 -0.65 7.05 0.15 3.45 3.3 4.0 4.9 0.0 9.7 0.0 5.2 3.1" fill="#ffcc99" fill-rule="evenodd" stroke="none"/>
    </g>
    <g id="sprite9" transform="matrix(1.0, 0.0, 0.0, 1.0, 0.0, 0.0)">
      <use height="1.1" transform="matrix(1.0, 0.0, 0.0, 1.0, 0.0, 0.0)" width="2.35" xlink:href="#shape9"/>
    </g>
    <g id="shape9" transform="matrix(1.0, 0.0, 0.0, 1.0, 0.0, 0.0)">
      <path d="M1.0 0.0 L1.05 0.05 1.35 0.3 1.4 0.35 Q1.7 0.8 1.2 1.1 L0.3 0.95 Q-0.2 0.65 0.2 0.25 0.4 0.05 0.8 0.0 L1.0 0.0" fill="#ffffff" fill-rule="evenodd" stroke="none"/>
      <path d="M2.1 0.9 Q1.6 0.9 2.1 0.1 2.65 0.9 2.1 0.9" fill="#ffffff" fill-rule="evenodd" stroke="none"/>
    </g>
  </defs>
</svg>
